src/lib/packages/icons/src/assets/line/github.svg

<svg width="24" height="24" viewBox="0 0 24 24" fill="none" xmlns="http://www.w3.org/2000/svg">
<path d="M12 2.25C6.62 2.25 2.25 6.62 2.25 12C2.25 17.38 6.62 21.75 12 21.75C17.38 21.75 21.75 17.38 21.75 12C21.75 6.62 17.38 2.25 12 2.25ZM14.23 19.94C14.23 19.53 14.23 18.67 14.23 17.64C14.23 16.8 13.94 16.25 13.62 15.97C15.62 15.75 17.73 14.99 17.73 11.53C17.73 10.55 17.38 9.75 16.8 9.12C16.9 8.89 17.21 7.97001 16.72 6.73001C16.72 6.73001 15.96 6.49 14.24 7.66C13.52 7.46 12.75 7.36001 11.99 7.35001C11.22 7.36001 10.45 7.46 9.73999 7.66C8.01999 6.49 7.26001 6.73001 7.26001 6.73001C6.77001 7.97001 7.07998 8.89 7.16998 9.12C6.59998 9.75 6.25 10.55 6.25 11.53C6.25 14.98 8.34998 15.75 10.35 15.98C10.09 16.2 9.86003 16.6 9.78003 17.18C9.26003 17.41 7.95997 17.81 7.15997 16.43C7.15997 16.43 6.68003 15.57 5.78003 15.51C5.78003 15.51 4.89997 15.5 5.71997 16.05C5.71997 16.05 6.30997 16.33 6.71997 17.37C6.71997 17.37 7.24 18.98 9.75 18.43C9.75 19.05 9.75 19.62 9.75 19.94C6.28 18.96 3.72998 15.78 3.72998 12C3.72998 7.45 7.42998 3.75 11.98 3.75C16.53 3.75 20.23 7.45 20.23 12C20.23 15.78 17.68 18.96 14.21 19.94H14.23Z" fill="currentColor"/>
</svg>

<svg xmlns="http://www.w3.org/2000/svg" width="24" height="24" fill="none"><path fill="currentColor" d="M12 2.25c-5.38 0-9.75 4.37-9.75 9.75s4.37 9.75 9.75 9.75 9.75-4.37 9.75-9.75S17.38 2.25 12 2.25Zm2.23 17.69v-2.3c0-.84-.29-1.39-.61-1.67 2-.22 4.11-.98 4.11-4.44 0-.98-.35-1.78-.93-2.41.1-.23.41-1.15-.08-2.39 0 0-.76-.24-2.48.93-.72-.2-1.49-.3-2.25-.31-.77.01-1.54.11-2.25.31-1.72-1.17-2.48-.93-2.48-.93-.49 1.24-.18 2.16-.09 2.39-.57.63-.92 1.43-.92 2.41 0 3.45 2.1 4.22 4.1 4.45-.26.22-.49.62-.57 1.2-.52.23-1.82.63-2.62-.75 0 0-.48-.86-1.38-.92 0 0-.88-.01-.06.54 0 0 .59.28 1 1.32 0 0 .52 1.61 3.03 1.06v1.51c-3.47-.98-6.02-4.16-6.02-7.94 0-4.55 3.7-8.25 8.25-8.25s8.25 3.7 8.25 8.25c0 3.78-2.55 6.96-6.02 7.94h.02Z"/></svg>
